X:1
T:O Perfect Life of Love
T:Text: Henry W. Baker, 1875, alt. Tune: W. Daman's Psalmes, 1579
T:SM SOUTHWELL www.hymnary.org/text/o_perfect_life_of_love
T:O Perfect Life of Love
T:This hymn is in the public domain. You may freely use this score for personal and congregational worship. If you reproduce the score, please credit Hymnary.org as the source. 
T:This hymn is in the public domain. You may freely use this score for personal and congregational worship. If you reproduce the score, please credit Hymnary.org as the source. 
Z:This hymn is in the public domain. You may freely use this score for personal and congregational worship. If you reproduce the score, please credit Hymnary.org as the source.
%%score ( 1 2 ) ( 3 4 )
L:1/8
M:4/4
K:G
V:1 treble nm="SOPRANO ALTO" snm="S. A."
V:2 treble 
V:3 bass nm="TENOR BASS" snm="T. B."
V:4 bass 
V:1
"^1""^2""^3""^4""^5" E2 | G2 G2 F2 F2 | E6 E2 | G2 G2 A2 A2 | B6 |1 B2 | d2 d2 c2 c2 | %7
w: O|per- fect life of|love! All,|all is fin- ished|now—|all|that he left his|
w: No|work is left un-|done of|all the Fa- ther|willed;|his|toils, his sor- rows,|
w: No|pain that we can|share but|he has felt its|smart.|All|forms of hu- man|
w: And|on his thorn- crowned|head and|on his sin- less|soul|our|sins in all their|
w: In|per- fect love he|dies; for|me, his aw- ful|death!|O|all- a- ton- ing|
 B2 B2 A2 B2 | A2 G2 F2 F2 | E6 x2 |] %10
w: throne a- bove to|do for us be-|low.|
w: one by one, are|proph- e- cies ful-|filled.|
w: grief and care have|pierced that ten- der|heart.|
w: guilt were laid, that|he might make us|whole.|
w: Sac- ri- fice, I|cling to you in|faith.|
V:2
 B,2 | B,2 E2 E2 ^D2 | B,6 B,2 | B,2 D2 E2 D2 | D6 |1 G2 | G2 F2 E2 D2 | D2 D2 D2 G2 | %8
 E2 E2 E2 ^D2 | B,6 x2 |] %10
V:3
 G,2 | G,2 G,2 C2 B,2 | G,6 G,2 | G,2 G,2 G,2 F,2 | G,6 |1 G,2 | A,2 A,2 G,2 A,2 | %7
"^6 In every time of need,before your judgment throneyour work, O Lamb of God, I'll plead—your merit, not my own.7 Yet work your way in me,my self-will, Lord, remove;then shall my love and service bemy answer to your love." G,2 G,2 F,2 D2 | %8
 C2 B,2 B,2 B,2 | G,6 x2 |] %10
V:4
 E,2 | E,2 C,2 A,,2 B,,2 | E,6 E,2 | E,2 B,,2 C,2 D,2 | G,,6 |1 E,2 | D,2 D,2 E,2 F,2 | %7
 G,2 B,,2 D,2 G,,2 | A,,2 E,2 B,,2 B,,2 | E,6 x2 |] %10

